X: 10973
T: COTILLION No. 14. tune 5
C:
%R: reel, hornpipe
B: Elias Howe "The Musician's Companion" Part 1 1842 p.97 #3
S: http://imslp.org/wiki/The_Musician's_Companion_(Howe,_Elias)
Z: 2015 John Chambers <jc:trillian.mit.edu>
M: 2/4
L: 1/16
%V: 1
%V: 2
K: F
% - - - - - - - - - - - - - - - - - - - - - - - - -
P: % Kludge to produce no 2nd voice in 1st strain.
(cf) |\
a>aa>a a>aa>a | baga fdcA | f>ga>f b>ag>f | gfed c2AB |\
c>fa>a a>aa>a | c'bge gfdB | A2Bc defd | c>ag>e f2 H:|
P: % Kludge to produce 2nd voice in 2nd strain only.
%%staves {1 2}
[V:1] "Clarionet Solo."fg |\
a2({g}(3fef) c2({g}(3fef) | b2({a}(3gfg)  c'2({a}(3gfg) |\
a2({g}(3fef) c2({g}(3fef) | ((3bag) ((3agf) ((3gfe) ((3fed) |\
c2({g}(3fef) c2({e}(3fef) | b2({a}(3gfg)  c'2({a}(3gfg) |\
a2({g}(3fef) c2({g}(3fef) | g>bc>e "^D.C."f2 :|
[V:2] z2 |\
c2A2F2A2 | c2B2G2B2 | c2A2F2A2 | G2F2E2z2 |\
c2A2F2A2 | c2B2G2B2 | c2A2F2A2 | G2B2A2 :|
% - - - - - - - - - - Dance description - - - - - - - - - -
%%begintext align
%% First 2 forward and back,
%% cross over,
%% chassa de chassa,
%% cross back,
%% balance and turn partners,
%% next 2 forward, &c.
%%endtext
%- - - - - - - - - - - - - - - - - - - - - - - - -
%%sep 1 1 300
